X:62
T:81st Ps or 24. WHG.061
R:hymn
S:W.H.Giles MS,Bampton,Oxfordshire,1839p63
O:England
H:donated by Mrs W.R.Kettlewell to VWML,Apr 1927.
A:Bampton, Oxfordshire
N:Scribbled out. No TS given. Bar 8 (Pia) is
N:nearly smudged out. I’ve made a guess – PJH.
Z:PJHeadford – VMP 2009
M:3/4
L:1/4
Q:1/4=120
K:G
G|B3/4A/4 Gd|cBA|B/G/c/ A/G/F/|G2D|
EDA|F/A/B/ G/c/B/|BA||d|” Pia”cAG|GFG|
(e3/4d/4)cB|BAD|(G/B/)d/ B/A/G/|cBA|G2|]

